X:6
T:Plinn
R:Plinn
O:France
A:Bretagne
Z:anamnese@caramail.com
N:tagafolk.abc
P:AABCBC
M:C
L:1/8
Q:1/4=145
K:C
P:A
e2de cdec | e2de cde2 :: e2dc BAAG | A2GA FGA2 :|
P:B
d2cd ecd2  | d2cd ecd2 |\
d2cd ec dd | d2cd ecd2 |
P:C
|: f2ef gafe | d2cd ecd2 :|
